build/logo/DDoSOutline.svg

<svg xmlns="http://www.w3.org/2000/svg" fill="none" viewBox="0 0 24 24" focusable="false"><path d="M0 0H24V24H0z"/><path fill="#74767B" fill-rule="evenodd" d="M4.98486 4.6615C4.40576 4.80615 4 5.32617 4 5.92267L4 11.1531C4 14.2562 5.59863 17.1404 8.22998 18.785L11.311 20.7107C11.7324 20.9741 12.2676 20.9741 12.689 20.7107L15.77 18.785C18.4014 17.1404 20 14.2562 20 11.1531L20 5.92267C20 5.32617 19.5942 4.80615 19.0151 4.6615L12.7275 3.0896C12.25 2.97015 11.75 2.97015 11.2725 3.0896L4.98486 4.6615ZM18.7002 11.1531L18.7002 5.92267L12.4121 4.35077C12.1416 4.28308 11.8584 4.28308 11.5879 4.35077L5.2998 5.92267L5.2998 11.1531C5.2998 13.808 6.66748 16.2756 8.91895 17.6827L12 19.6083L15.0811 17.6827C17.3325 16.2756 18.7002 13.808 18.7002 11.1531ZM9.2168 14.1276C8.93652 14.1276 8.66846 14.0734 8.41211 13.9649C8.16455 13.8603 7.9458 13.7127 7.75537 13.5222C7.65576 13.423 7.56836 13.316 7.49219 13.2013C7.42285 13.0959 7.36279 12.9839 7.3125 12.8655C7.26221 12.7468 7.22363 12.6254 7.19678 12.5016C7.16553 12.3581 7.1499 12.2112 7.1499 12.0609Q7.1499 11.8354 7.19678 11.6202C7.22363 11.4963 7.26221 11.3751 7.3125 11.2562C7.36279 11.1378 7.42285 11.0259 7.49219 10.9205C7.56836 10.8058 7.65576 10.6988 7.75537 10.5995C7.85449 10.5002 7.96143 10.4127 8.07617 10.3367C8.18164 10.2669 8.29346 10.207 8.41211 10.1569C8.46289 10.1353 8.51465 10.1141 8.56689 10.0968C8.56689 9.85785 8.5918 9.62445 8.64209 9.39655C8.68408 9.20465 8.74414 9.01672 8.82227 8.83264Q8.93945 8.5556 9.10205 8.30878C9.22217 8.12714 9.36084 7.95776 9.51758 7.80072C9.6748 7.64362 9.84424 7.50507 10.0259 7.38519C10.1904 7.27655 10.3652 7.18317 10.5498 7.10504C10.7339 7.02722 10.9219 6.96716 11.1138 6.92493C11.3413 6.87469 11.5747 6.84961 11.814 6.84961C12.0342 6.84961 12.25 6.87103 12.4614 6.91394C12.6299 6.94812 12.7954 6.99591 12.9585 7.05737C13.1255 7.12012 13.2847 7.19543 13.4365 7.28326C13.6089 7.38257 13.7715 7.49799 13.9248 7.62939C14.0732 7.75635 14.208 7.89417 14.3296 8.04291C14.4434 8.18219 14.5454 8.33105 14.6357 8.48944C14.7329 8.65955 14.8916 8.92633 14.9556 9.10803Q15.1819 9.15765 15.3994 9.24957C15.5444 9.31085 15.6816 9.38422 15.8105 9.46954C15.9521 9.56305 16.084 9.67102 16.2061 9.7934C16.3286 9.91577 16.4365 10.0477 16.5303 10.1892C16.6157 10.3182 16.689 10.4553 16.75 10.6002C16.8115 10.7451 16.8584 10.8931 16.8916 11.0441C16.9307 11.2214 16.9497 11.4029 16.9497 11.5887C16.9497 11.7744 16.9307 11.9559 16.8916 12.1332C16.8584 12.2843 16.8115 12.4323 16.75 12.5771C16.689 12.722 16.6157 12.8591 16.5303 12.9882C16.4365 13.1296 16.3286 13.2615 16.2061 13.3839C16.084 13.5063 15.9521 13.6143 15.8105 13.7078C15.6816 13.7932 15.5444 13.8665 15.3994 13.9278Q15.1819 14.0197 14.9556 14.0693C14.7783 14.1082 14.5933 14.1276 14.4072 14.1276L9.2168 14.1276ZM8.92236 12.7714C9.0127 12.8088 9.11084 12.8275 9.2168 12.8276L14.4111 12.8276C14.5791 12.8276 14.7402 12.7952 14.8931 12.7305C15.041 12.6678 15.1724 12.5792 15.2871 12.4647C15.4014 12.3502 15.4902 12.2189 15.5527 12.0707C15.5801 12.0067 15.6011 11.9413 15.6172 11.8747C15.6392 11.7819 15.6499 11.6866 15.6499 11.5887C15.6499 11.4203 15.6177 11.2596 15.5527 11.1066Q15.5105 11.0065 15.4523 10.9166L15.4517 10.9156C15.4048 10.843 15.3496 10.7753 15.2871 10.7126C15.1724 10.5981 15.041 10.5095 14.8931 10.4469C14.8291 10.4198 14.7637 10.3984 14.6973 10.3826C14.6045 10.3607 14.5088 10.3498 14.4111 10.3498C14.3271 10.3498 14.2485 10.3362 14.1748 10.3091C14.1006 10.282 14.0317 10.2413 13.9678 10.187Q13.8715 10.1053 13.8132 10.0023Q13.7553 9.89985 13.7349 9.77625C13.7168 9.66498 13.689 9.55688 13.6523 9.45209C13.6138 9.34241 13.5654 9.23633 13.5068 9.13373C13.3945 8.93695 13.252 8.76471 13.0796 8.61688C12.9058 8.46826 12.7129 8.35394 12.5005 8.27386C12.4111 8.24023 12.3203 8.21344 12.228 8.19342C12.0933 8.16425 11.9551 8.1496 11.814 8.1496C11.6626 8.1496 11.5156 8.16626 11.3721 8.19952C11.2646 8.22443 11.1592 8.25873 11.0562 8.30237C10.9492 8.34753 10.8481 8.40131 10.7524 8.46368C10.6396 8.53717 10.5342 8.62262 10.437 8.71991Q10.2952 8.86196 10.1867 9.02601Q10.1837 9.03061 10.1807 9.03522C10.1182 9.13092 10.0645 9.23224 10.0195 9.33911C9.97559 9.44226 9.94141 9.54755 9.9165 9.65503C9.8833 9.79846 9.8667 9.94574 9.8667 10.0968C9.8667 10.2217 9.87842 10.3448 9.90137 10.4661C9.91162 10.5194 9.91553 10.5724 9.91357 10.6252C9.91162 10.6774 9.90332 10.7292 9.88916 10.7809C9.8623 10.8787 9.81641 10.9665 9.75146 11.0443C9.68701 11.1214 9.60938 11.1818 9.51904 11.2253C9.47119 11.2482 9.42236 11.2653 9.37256 11.2769C9.32178 11.2885 9.27002 11.2943 9.2168 11.2943C9.11084 11.2943 9.0127 11.3129 8.92236 11.3503C8.83203 11.3878 8.74951 11.4439 8.67432 11.5188C8.59961 11.5936 8.54346 11.6762 8.50586 11.7666C8.46875 11.8569 8.44971 11.955 8.44971 12.0609C8.44971 12.1667 8.46875 12.2648 8.50586 12.3552C8.54346 12.4456 8.59961 12.5281 8.67432 12.603C8.74951 12.6779 8.83203 12.734 8.92236 12.7714Z"/></svg>

<svg xmlns="http://www.w3.org/2000/svg" fill="none" viewBox="0 0 24 24" focusable="false"><path fill="#74767B" fill-rule="evenodd" d="M4 5.92c0-.6.4-1.12.98-1.26l6.29-1.58c.48-.11.98-.11 1.45 0l6.29 1.58c.58.14.99.66.99 1.26v5.23c0 3.1-1.6 5.99-4.23 7.63l-3.09 1.93a1.3 1.3 0 0 1-1.37 0l-3.09-1.93A8.99 8.99 0 0 1 4 11.15zm14.7 0v5.23c0 2.65-1.37 5.12-3.62 6.53L12 19.6l-3.09-1.92a7.72 7.72 0 0 1-3.62-6.53V5.92l6.29-1.57c.27-.07.56-.07.83 0zm-9.49 8.2c-.28 0-.55-.05-.8-.16-.25-.1-.47-.25-.66-.44-.1-.1-.19-.21-.26-.32s-.13-.22-.18-.34q-.075-.18-.12-.36c-.03-.15-.05-.29-.05-.44q0-.23.05-.44c.03-.13.07-.25.12-.37q.075-.18.18-.33c.07-.12.16-.23.26-.33.1-.09.21-.18.32-.26.11-.07.22-.13.34-.18l.15-.06a3.3 3.3 0 0 1 .26-1.26q.11-.28.28-.53a3.3 3.3 0 0 1 1.44-1.2q.285-.12.57-.18c.23-.05.46-.08.7-.08a3.5 3.5 0 0 1 1.14.21 3.5 3.5 0 0 1 .97.57c.15.13.28.27.4.42.12.14.22.29.31.44.1.17.26.44.32.62q.23.05.44.14c.15.07.29.14.42.22a3.1 3.1 0 0 1 .72.72c.08.13.15.27.22.42.06.14.1.29.14.44.04.18.05.36.05.54 0 .19-.01.37-.05.55-.04.15-.08.3-.14.44-.07.15-.14.28-.22.41-.1.14-.21.28-.33.4a2.4 2.4 0 0 1-.81.54q-.21.09-.44.14c-.18.04-.36.06-.55.06zm-.29-1.35c.09.03.19.05.29.05h5.2c.16 0 .33-.03.48-.09q.225-.105.39-.27c.12-.11.21-.25.27-.39.03-.07.05-.13.06-.2a1.36 1.36 0 0 0-.06-.77q-.04-.1-.1-.19c-.05-.07-.11-.14-.17-.2q-.165-.18-.39-.27a.8.8 0 0 0-.2-.06 1.4 1.4 0 0 0-.28-.04c-.09 0-.17-.01-.24-.04a.6.6 0 0 1-.21-.12q-.09-.08-.15-.18-.06-.11-.08-.23c-.02-.11-.05-.22-.08-.32-.04-.11-.09-.22-.15-.32-.11-.2-.25-.37-.43-.52a1.84 1.84 0 0 0-.85-.42 1.84 1.84 0 0 0-.85 0c-.11.03-.22.06-.32.11-.11.04-.21.1-.3.16-.12.07-.22.16-.32.25q-.14.15-.25.31v.01c-.07.1-.12.2-.17.3-.04.11-.07.21-.1.32-.03.14-.05.29-.05.44 0 .13.01.25.04.37.01.05.01.11.01.16s-.01.1-.03.16c-.02.09-.07.18-.13.26a.7.7 0 0 1-.24.18c-.04.02-.09.04-.14.05s-.1.02-.16.02c-.1 0-.2.02-.29.06-.09.03-.18.09-.25.16-.08.08-.13.16-.17.25a.7.7 0 0 0-.06.3c0 .1.02.2.06.29a.8.8 0 0 0 .42.42"/></svg>
